X:46
T:Corinna Corinna
C:Jethro Burns
N:From " Swing Low Swee tMandolin" Transcribed by Charlie Neff 
L:1/8
Q:1/4=120
M:4/4
K:G
z8 | z[BDG,] z2 [c2E2A,2] [^c2F2^A,2] | [d3G3B,3][bdGB,] z4 | z^a3/4z/4 bg3/4z/4 {a}bg3/4z/4 =a2 | 
[g4B4] [B2G2B,2] z[ad=F] | z[bd] zz [a2c2] [g2B2] | [ec][gcG] z2 [c2G2] z[cG] | 
z[g3/2c3/2][a3/2c3/2] [g2c2] [e2F2] | [d2G2B,2] z2 [d3F3B,3][dEB,] | z[bd] zz [b2d2] [b2d2] | 
[bd][ac] z2 [^c3=F3B,3][d^FC] | z^a bd' {a}bg ed | [g4B4D4] [c2E2A,2] [^c=F^A,][dB,] 


